svg/building/temple_of_heaven_fill.svg

<?xml version="1.0" encoding="UTF-8"?>
<svg width="24px" height="24px" viewBox="0 0 24 24" version="1.1" xmlns="http://www.w3.org/2000/svg" xmlns:xlink="http://www.w3.org/1999/xlink">
    <title>palace_2_fill</title>
    <g id="页面-1" stroke="none" stroke-width="1" fill="none" fill-rule="evenodd">
        <g id="Building" transform="translate(-96.000000, -136.000000)" fill-rule="nonzero">
            <g id="palace_2_fill" transform="translate(96.000000, 136.000000)">
                 <path d="M24,0 L24,24 L0,24 L0,0 L24,0 Z M12.5934901,23.257841 L12.5819402,23.2595131 L12.5108777,23.2950439 L12.4918791,23.2987469 L12.4918791,23.2987469 L12.4767152,23.2950439 L12.4056548,23.2595131 C12.3958229,23.2563662 12.3870493,23.2590235 12.3821421,23.2649074 L12.3780323,23.275831 L12.360941,23.7031097 L12.3658947,23.7234994 L12.3769048,23.7357139 L12.4804777,23.8096931 L12.4953491,23.8136134 L12.4953491,23.8136134 L12.5071152,23.8096931 L12.6106902,23.7357139 L12.6232938,23.7196733 L12.6232938,23.7196733 L12.6266527,23.7031097 L12.609561,23.275831 C12.6075724,23.2657013 12.6010112,23.2592993 12.5934901,23.257841 L12.5934901,23.257841 Z M12.8583906,23.1452862 L12.8445485,23.1473072 L12.6598443,23.2396597 L12.6498822,23.2499052 L12.6498822,23.2499052 L12.6471943,23.2611114 L12.6650943,23.6906389 L12.6699349,23.7034178 L12.6699349,23.7034178 L12.678386,23.7104931 L12.8793402,23.8032389 C12.8914285,23.8068999 12.9022333,23.8029875 12.9078286,23.7952264 L12.9118235,23.7811639 L12.8776777,23.1665331 C12.8752882,23.1545897 12.8674102,23.1470016 12.8583906,23.1452862 L12.8583906,23.1452862 Z M12.1430473,23.1473072 C12.1332178,23.1423925 12.1221763,23.1452606 12.1156365,23.1525954 L12.1099173,23.1665331 L12.0757714,23.7811639 C12.0751323,23.7926639 12.0828099,23.8018602 12.0926481,23.8045676 L12.108256,23.8032389 L12.3092106,23.7104931 L12.3186497,23.7024347 L12.3186497,23.7024347 L12.3225043,23.6906389 L12.340401,23.2611114 L12.337245,23.2485176 L12.337245,23.2485176 L12.3277531,23.2396597 L12.1430473,23.1473072 Z" id="MingCute" fill-rule="nonzero"></path>
                <path d="M19.7048,15.8539 L19.1445,19.2161 C19.0079,20.0351 18.5352,21.008 17.4569,21.3668 L17.1733721,21.4547005 C17.1230154,21.4692497 17.071076,21.4837282 17.0175065,21.4981055 L16.6761489,21.5829139 C16.4350306,21.6383202 16.1663132,21.6911375 15.8669614,21.739422 L15.3945783,21.8082065 C14.7330881,21.8947385 13.9429895,21.9592526 13,21.9862 L13,20 C13,19.4477 12.5523,19 12,19 C11.4477,19 11,19.4477 11,20 L11,21.9862 C10.0570189,21.9592526 9.26692166,21.8947385 8.60542864,21.8082065 L8.13304281,21.739422 C7.83368863,21.6911375 7.56496804,21.6383202 7.32384612,21.5829139 L6.98248286,21.4981055 L6.98248286,21.4981055 L6.68024138,21.4108713 C6.6330015,21.3962111 6.58729684,21.3815105 6.54308,21.3668 C5.46486,21.008 4.99207,20.0351 4.85556,19.2161 L4.2952,15.8539 C4.66797,16.0001 5.03747,16.1152 5.36115,16.2078 C7.10203,16.7055 9.4489,17 12,17 C14.5511,17 16.898,16.7055 18.6389,16.2078 C18.9625,16.1152 19.332,16.0001 19.7048,15.8539 Z M12,2 C12.5523,2 13,2.44772 13,3 C13,4.3892 14.0107,5.13731 14.9472,5.60557 C15.2453727,5.75465636 15.5623041,5.8845995 15.8850521,6.01068333 L16.5344686,6.26223379 C17.1839711,6.51769562 17.8222273,6.79847727 18.3457,7.22685 C18.6466,7.47303 19,7.89002 19,8.5 C19,8.99411 18.8022,9.3809 18.53,9.67972 L18.9792303,9.80800843 L18.9792303,9.80800843 L19.2996107,9.90806026 L19.2996107,9.90806026 L19.6291047,10.0215866 C20.7906813,10.4443625 22,11.143925 22,12.4268 C22,13.6158714 20.9519388,14.3344837 19.8767711,14.7842402 L19.5544286,14.9113031 C19.5009096,14.9312032 19.4475781,14.9504815 19.3945617,14.9691633 L19.0812654,15.0742973 L19.0812654,15.0742973 L18.7816569,15.1663239 L18.7816569,15.1663239 L18.6389,15.2078 C16.898,15.7055 14.5511,16 12,16 C9.618964,16 7.41585244,15.7434578 5.71727857,15.3046036 L5.21837792,15.1663239 L5.21837792,15.1663239 L4.91876053,15.0742973 L4.91876053,15.0742973 L4.60545682,14.9691633 C4.55243931,14.9504815 4.49910678,14.9312032 4.44558683,14.9113031 L4.12323907,14.7842402 C3.04805612,14.3344837 2,13.6158714 2,12.4268 C2,11.143925 3.20931875,10.4443625 4.37087844,10.0215866 L4.70036716,9.90806026 L4.70036716,9.90806026 L5.02074128,9.80800843 L5.02074128,9.80800843 L5.46996,9.67972 L5.46996,9.67972 C5.19777,9.3809 5,8.99411 5,8.5 C5,7.89002 5.35343,7.47303 5.65427,7.22685 C6.17643364,6.79954636 6.81346702,6.51933992 7.46286348,6.26381335 L8.11258441,6.01197944 C8.43570884,5.88564182 8.75338182,5.75527273 9.05279,5.60557 C9.942484,5.160723 10.8991164,4.46330235 10.9925554,3.20361563 L11,3 C11,2.44772 11.4477,2 12,2 Z" id="形状" fill="#09244B"></path>
            </g>
        </g>
    </g>
</svg>

<svg xmlns="http://www.w3.org/2000/svg" width="24" height="24"><g fill="none" fill-rule="nonzero"><path d="M24 0v24H0V0h24ZM12.593 23.258l-.011.002-.071.035-.02.004-.014-.004-.071-.035c-.01-.004-.019-.001-.024.005l-.004.01-.017.428.005.02.01.013.104.074.015.004.012-.004.104-.074.012-.016.004-.017-.017-.427c-.002-.01-.009-.017-.017-.018Zm.265-.113-.013.002-.185.093-.01.01-.003.011.018.43.005.012.008.007.201.093c.012.004.023 0 .029-.008l.004-.014-.034-.614c-.003-.012-.01-.02-.02-.022Zm-.715.002a.023.023 0 0 0-.027.006l-.006.014-.034.614c0 .012.007.02.017.024l.015-.002.201-.093.01-.008.004-.011.017-.43-.003-.012-.01-.01-.184-.092Z"/><path fill="#09244B" d="m19.705 15.854-.56 3.362c-.137.82-.61 1.792-1.688 2.15l-.284.089-.155.043-.342.085c-.241.055-.51.108-.809.156l-.472.07c-.662.086-1.452.15-2.395.177V20a1 1 0 1 0-2 0v1.986a23.775 23.775 0 0 1-2.395-.178l-.472-.069c-.3-.048-.568-.1-.81-.156l-.34-.085-.303-.087a7.112 7.112 0 0 1-.137-.044c-1.078-.359-1.55-1.332-1.687-2.15l-.56-3.363c.372.146.741.261 1.065.354C7.102 16.706 9.45 17 12 17s4.898-.294 6.639-.792c.323-.093.693-.208 1.066-.354ZM12 2a1 1 0 0 1 1 1c0 1.39 1.01 2.137 1.947 2.606.298.149.615.279.938.405l.65.251c.649.256 1.287.536 1.81.965.302.246.655.663.655 1.273 0 .494-.198.88-.47 1.18l.45.128.32.1.33.114c1.16.422 2.37 1.122 2.37 2.405 0 1.189-1.048 1.907-2.123 2.357l-.323.127c-.053.02-.106.04-.16.058l-.313.105-.3.092-.142.042C16.898 15.706 14.55 16 12 16c-2.381 0-4.584-.257-6.283-.695l-.499-.139-.3-.092-.313-.105a9.887 9.887 0 0 1-.16-.058l-.322-.127C3.048 14.334 2 13.616 2 12.427c0-1.283 1.21-1.983 2.37-2.405l.33-.114.32-.1.45-.128A1.71 1.71 0 0 1 5 8.5c0-.61.353-1.027.654-1.273.522-.427 1.16-.708 1.809-.963l.65-.252c.323-.126.64-.257.94-.406.89-.445 1.846-1.143 1.94-2.402L11 3a1 1 0 0 1 1-1Z"/></g></svg>
